X: 167
T: SINGLE JIG: Bank of Turf
C: C: Trad.; S: Aoife Granville; Denis Murphy
C: Set Leaders: Mars, Anton
Z: Mars Agliullin ed., Anton Zille ed., Oleg Naumov arr.; Mars at The Session
N: https://thesession.org/members/26966/sets/94265
R: Single Jig
M: 12/8
L: 1/8
Q: 3/8=130
K: Dmaj
d2 B|:"D"ABA DFA "G"BAF "D"DFA|"D"dAA "A"eAA "D"~f3 def|
"G"~g3 gab "D"afd Bcd|1 "Em"efe ~e2d "A"cBA Bcd:|2 "A"ABA efe "D"d3 dcd||
|:"A"e2A efg "D"f2d fga|"G"gfe "D"fed "A"edB ABd|
"A"eAA efg "D"fdd fga|1 "G"gfe "D"dcB "A"A3 ABd:|2 "G"gfe "D"dcB "A"AFA Bcd||

